!!!!SEGMENT: Vin1001b-Missa_Stabat_mater-Gloria.krn
!!!id: Vin1001b
!!!AGN: Mass; Gloria
!!!SCT: Jas (2018)
!!!voices: 5
!!!COM: Jheronimus Vinders
!!!OPR: Missa Stabat mater
!!!OTL: Gloria
**kern	**kern	**kern	**kern	**kern
*part5	*part4	*part3	*part2	*part1
*staff5	*staff4	*staff3	*staff2	*staff1
*I"Bassus	*I"Tenor	*I"Altus	*I"Superius II	*I"Superius I
*I'B	*I'T	*I'A	*I'S. II	*I'S. I
*clefF4	*clefGv2	*clefGv2	*clefG2	*clefG2
*k[b-]	*k[b-]	*k[b-]	*k[b-]	*k[b-]
*F:	*F:	*F:	*F:	*F:
*M2/1	*M2/1	*M2/1	*M2/1	*M2/1
*met(C)	*met(C)	*met(C)	*met(C)	*met(C)
!!section: Et in terra pax
!!!OMD: Et in terra pax
=1	=1	=1	=1	=1
0r	1r	1.c	0r	0r
.	[1c	.	.	.
.	.	2c	.	.
=2	=2	=2	=2	=2
1.c	2c]	2A	0r	1r
.	2c	2A	.	.
.	2A	1F	.	[1cc
2c	2A	.	.	.
=3	=3	=3	=3	=3
2A	1F	1.c	0r	2cc]
2A	.	.	.	2cc
2F	1c	.	.	2a
2F	.	[2f	.	2a
=4	=4	=4	=4	=4
1B-y	1d	2f]	0r	2f
.	.	4e	.	2f
.	.	4d	.	.
1G	1B-y	1e	.	2b-y
.	.	.	.	2b-y
=5	=5	=5	=5	=5
[0F	1c	1f	1.cc	2.a
.	.	.	.	4f
.	2.A	2r	.	1f
.	.	2c	2cc	.
.	4F	.	.	.
=6	=6	=6	=6	=6
0F]	1F	2d	2a	2r
.	.	2c	2a	2f
.	2r	2A	1f	2.cc
.	2F	[2c	.	.
.	.	.	.	4dd
=7	=7	=7	=7	=7
0C	1.G	2c]	1cc	2ee
.	.	4B-y	.	1ff
.	.	4A	.	.
.	.	1G	2cc	.
.	2G	.	2cc	2ee
=8	=8	=8	=8	=8
0F	1A	2r	2cc	0ff
.	.	2F	2f	.
.	1F	2.c	2a	.
.	.	.	[2cc	.
.	.	4d	.	.
=9	=9	=9	=9	=9
0r	0c	2e	2cc]	0r
.	.	1f	4b-y	.
.	.	.	4a	.
.	.	.	1g	.
.	.	2e	.	.
=10	=10	=10	=10	=10
2r	[0F	2f	0a	1r
2F	.	4e	.	.
.	.	4d	.	.
2.A	.	1c	.	1f
4B-y	.	.	.	.
=11	=11	=11	=11	=11
2c	0F]	0A	2r	2.a
2c	.	.	2f	.
.	.	.	.	4b-y
1F	.	.	2.a	2cc
.	.	.	.	2cc
.	.	.	4b-y	.
=12	=12	=12	=12	=12
1F	1r	2r	2cc	2f
.	.	2a	2cc	2ff
2F	2r	[1a	1f	2ff
2D	2F	.	.	2ff
=13	=13	=13	=13	=13
1F	2.A	2a]	2r	2ff
.	.	2a	2cc	4ee
.	4B-y	.	.	4dd
1C	2c	2g	2cc	2ee
.	2c	2g	2g	2ee
=14	=14	=14	=14	=14
1F	2.F	2f	2.a	0ff
.	.	2.a	.	.
.	4G	.	4b-y	.
1r	2A	.	2cc	.
.	.	4g	.	.
.	2B-y	[2f	[2dd	.
=15	=15	=15	=15	=15
0r	1A	2f]	2dd]	1r
.	.	4e	4cc	.
.	.	4d	4b-y	.
.	1A	1e	1cc	1ee
=16	=16	=16	=16	=16
1r	0D	1.d	0dd	1.ff
[1D	.	.	.	.
.	.	2e	.	2ee
=17	=17	=17	=17	=17
1D]	0r	1f	0r	2dd
.	.	.	.	2dd
1A	.	1e	.	2cc
.	.	.	.	2cc
=18	=18	=18	=18	=18
1.B-y	2.G	2d	0r	1.dd
.	.	2.g	.	.
.	4A	.	.	.
.	2B-y	.	.	.
.	.	4f	.	.
2A	2c	2f	.	2cc
=19	=19	=19	=19	=19
1G	1d	2g	1g	2b-y
.	.	2d	.	2b-y
[1F	2.D	2.f	[1a	1a
.	4E	4e	.	.
=20	=20	=20	=20	=20
2F]	2F	4d	2a]	0r
.	.	4c	.	.
2E	2G	1c	2g	.
1D	2A	.	1f	.
.	2F	2Bni	.	.
=21	=21	=21	=21	=21
2C	1G	1c	1e	0r
2C	.	.	.	.
1F	1F	2r	[1f	.
.	.	2c	.	.
=22	=22	=22	=22	=22
2r	2r	2A	0f]	1r
2D	1A	2F	.	.
2F	.	1A	.	2r
2F	2c	.	.	2a
=23	=23	=23	=23	=23
2C	2c	0G	2r	2cc
2C	2G	.	2e	2cc
2E-X	2G	.	2g	2g
2E-i	2B-y	.	2g	2g
=24	=24	=24	=24	=24
4BB-y	2B-y	0F	2d	1b-y
4C	.	.	.	.
4D	2.F	.	2.f	.
4E	.	.	.	.
1F	.	.	.	1a
.	4G	.	4e	.
.	4A	.	4c	.
.	4B-y	.	4d	.
=25	=25	=25	=25	=25
2E	0c	2r	2e	2g
2F	.	2c	1c	1a
4C	.	1e	.	.
4D	.	.	.	.
4E	.	.	[2g	4g
4F	.	.	.	4f
=26	=26	=26	=26	=26
2.G	1B-y	1d	4g]	2.b-y
.	.	.	4f	.
.	.	.	2.d	.
4F	.	.	.	4a
2.D	2A	1d	.	2.f
.	.	.	4e	.
.	[2F	.	[2f	.
4E	.	.	.	4g
=27	=27	=27	=27	=27
1F	4F]	[0c	4f]	1a
.	4G	.	4e	.
.	4A	.	4c	.
.	4B-y	.	4d	.
[1C	2.c	.	[1e	2g
.	.	.	.	[2cc
.	4B-y	.	.	.
=28	=28	=28	=28	=28
1C]	4A	0c_	1e]	4cc]
.	4G	.	.	4b-y
.	2.c	.	.	2a
2C	.	.	2r	2g
.	4B-y	.	.	.
[2F	4A	.	2c	[2a
.	4G	.	.	.
=29	=29	=29	=29	=29
4F]	2F	0c]	1f	4a]
4E	.	.	.	4g
2F	2A	.	.	1f
1C	1G	.	1g	.
.	.	.	.	2e
=30	=30	=30	=30	=30
1r	1F	2r	[0a	0f
.	.	2F	.	.
1F	1r	[1A	.	.
=31	=31	=31	=31	=31
1.A	1F	2A]	0a]	1r
.	.	2B-y	.	.
.	[1A	1c	.	1f
2B-y	.	.	.	.
=32	=32	=32	=32	=32
1c	2A]	1F	1r	1.a
.	2B-y	.	.	.
[1F	1c	1r	1f	.
.	.	.	.	2b-y
=33	=33	=33	=33	=33
1F]	0F	1F	1.a	1cc
1r	.	[1A	.	1f
.	.	.	2b-y	.
=34	=34	=34	=34	=34
1F	1r	2A]	1cc	2r
.	.	2B-y	.	1cc
2F	1F	[1c	2.f	.
[2F	.	.	.	2a
.	.	.	4g	.
=35	=35	=35	=35	=35
2F]	2F	1c]	2a	2cc
4E	2F	.	2f	2dd
4D	.	.	.	.
1C	1E	1c	2g	2ee
.	.	.	2a	2cc
=36	=36	=36	=36	=36
2.BB-y	2D	2.d	2b-y	2.ff
.	1d	.	4a	.
4C	.	4e	4g	4ee
2D	.	[1f	2f	1dd
2E	4c	.	2g	.
.	4B-y	.	.	.
=37	=37	=37	=37	=37
0F	1A	2f]	1.a	1cc
.	.	4e	.	.
.	.	4d	.	.
.	2F	1c	.	1a
.	[2c	.	[2f	.
=38	=38	=38	=38	=38
0C	2c]	1r	2f]	0g
.	4B-y	.	4e	.
.	4A	.	4d	.
.	1G	[1c	1e	.
=39	=39	=39	=39	=39
1.c	[0F	2c]	1f	1a
.	.	2B-y	.	.
.	.	2A	1r	[1cc
2B-y	.	2G	.	.
=40	=40	=40	=40	=40
2A	0F]	1F	1.cc	2cc]
2G	.	.	.	2b-y
1F	.	[1f	.	2a
.	.	.	2b-y	2g
=41	=41	=41	=41	=41
1r	0r	2f]	2a	1f
.	.	2e	2g	.
[1B-y	.	2d	1f	[1ff
.	.	2c	.	.
=42	=42	=42	=42	=42
2B-]	0r	1B-y	1.b-y	2ff]
2B-y	.	.	.	2ee
2B-y	.	2.f	.	2dd
2F	.	.	2a	2cc
.	.	4e	.	.
=43	=43	=43	=43	=43
0G	0r	2d	2g	2b-y
.	.	2c	4f	1a
.	.	.	4e	.
.	.	1B-y	2d	.
.	.	.	2e	2g
=44	=44	=44	=44	=44
[0F	1c	0A	0f	[0a
.	2d	.	.	.
.	2c	.	.	.
=45	=45	=45	=45	=45
0F]	4c	1c	0r	0a]
.	4B-y	.	.	.
.	4A	.	.	.
.	4G	.	.	.
.	2F	2d	.	.
.	2F	2c	.	.
=46	=46	=46	=46	=46
0r	2.A	4c	1r	0r
.	.	4B-y	.	.
.	.	4A	.	.
.	4B-y	4G	.	.
.	2c	2F	2r	.
.	2c	2F	[2a	.
=47	=47	=47	=47	=47
0r	1F	2.A	4a]	1r
.	.	.	4g	.
.	.	.	1f	.
.	.	4B-y	.	.
.	1C	2c	.	1cc
.	.	2c	2e	.
=48	=48	=48	=48	=48
0r	0r	[0F	1f	2dd
.	.	.	.	2cc
.	.	.	1cc	4cc
.	.	.	.	4b-y
.	.	.	.	4a
.	.	.	.	4g
=49	=49	=49	=49	=49
0r	0r	0F]	2dd	2f
.	.	.	2cc	2f
.	.	.	4cc	2.a
.	.	.	4b-y	.
.	.	.	4a	.
.	.	.	4g	4b-y
=50	=50	=50	=50	=50
1.F	0r	0r	2f	2cc
.	.	.	2f	2cc
.	.	.	1a	2f
2F	.	.	.	[2ff
=51	=51	=51	=51	=51
1c	1r	1r	1g	2ff]
.	.	.	.	2ee
2d	[1F	2r	[1f	2ff
2c	.	[2c	.	4ee
.	.	.	.	4dd
=52	=52	=52	=52	=52
4c	2F]	2c]	1f]	1cc
4B-y	.	.	.	.
4A	2F	2.f	.	.
4G	.	.	.	.
2F	2D	.	1r	2dd
.	.	4g	.	.
2F	[2F	[2a	.	[2cc
=53	=53	=53	=53	=53
2.A	1F]	4a]	1.cc	4cc]
.	.	4g	.	4b-y
.	.	1f	.	2a
4B-y	.	.	.	.
2c	1C	.	.	1g
2c	.	2e	2cc	.
=54	=54	=54	=54	=54
1F	1.c	1f	1a	1f
1r	.	1r	1a	1r
.	2c	.	.	.
=55	=55	=55	=55	=55
1.F	1.A	1.c	1f	1.ff
.	.	.	[1a	.
2F	2A	2c	.	2ff
=56	=56	=56	=56	=56
1D	0F	2d	2a]	1ff
.	.	4c	2a	.
.	.	4B-y	.	.
1F	.	1A	2f	1ff
.	.	.	2f	.
=57	=57	=57	=57	=57
1C	1c	2G	1g	1ee
.	.	2g	.	.
2D	2F	2f	2r	2ff
2C	[2c	[2g	[2g	[2ee
=58	=58	=58	=58	=58
4C	4c]	4g]	2g]	4ee]
4D	4B-y	4f	.	4dd
4E	4G	2e	2g	1cc
4F	4A	.	.	.
1G	1B-y	1d	2g	.
.	.	.	2g	2bni
=59	=59	=59	=59	=59
1C	1G	1c	1e	0cc
2r	1c	1r	2r	.
2C	.	.	2e	.
=60	=60	=60	=60	=60
1D	2B-y	0r	1f	0r
.	1A	.	.	.
1BB-y	.	.	1d	.
.	2G	.	.	.
=61	=61	=61	=61	=61
1AA	1A	1c	2c	1ee
.	.	.	2cc	.
1r	1D	1d	2b-y	1ff
.	.	.	[2a	.
=62	=62	=62	=62	=62
0r	1G	1B-y	2a]	1dd
.	.	.	2g	.
.	1r	1A	1a	1cc
=63	=63	=63	=63	=63
1A	1c	0r	1a	1cc
1B-y	1d	.	2g	[1b-y
.	.	.	[2f	.
=64	=64	=64	=64	=64
1G	1B-y	0r	2f]	2b-]
.	.	.	2e	4a
.	.	.	.	4g
[1F	1c	.	1f	1a
=65	=65	=65	=65	=65
1F]	2r	0r	2c	2r
.	1F	.	2c	2cc
1r	.	.	2f	2cc
.	2F	.	2f	2ff
=66	=66	=66	=66	=66
0r	2B-y	0r	2d	2ff
.	2B-y	.	2d	2dd
.	2G	.	2.g	2dd
.	2G	.	.	[2gg
.	.	.	4f	.
=67	=67	=67	=67	=67
2r	2.c	1r	4e	4gg]
.	.	.	4c	4ff
2C	.	.	2cc	4ee
.	4B-y	.	.	4dd
2F	4A	2c	2cc	2cc
.	4G	.	.	.
2F	2F	2f	2a	2cc
=68	=68	=68	=68	=68
2D	2r	2f	2a	2ff
2D	2F	2d	2.dd	2ff
2.G	2B-y	2d	.	2dd
.	.	.	4cc	.
.	[2G	[2g	4b-y	2dd
4F	.	.	4a	.
=69	=69	=69	=69	=69
4E	2G]	4g]	2g	2.gg
4D	.	4f	.	.
2C	2G	4e	2r	.
.	.	4d	.	4ff
2r	2.c	2c	2g	4ee
.	.	.	.	4dd
2C	.	2r	2cc	2cc
.	4B-y	.	.	.
=70	=70	=70	=70	=70
2F	4A	2c	2cc	2r
.	4G	.	.	.
2F	2F	2f	2a	2cc
2D	2r	2f	2a	2ff
2D	2F	2d	[2dd	2ff
=71	=71	=71	=71	=71
2.G	2B-y	2d	4dd]	2dd
.	.	.	4cc	.
.	1G	2.g	4b-y	2dd
4F	.	.	4a	.
4E	.	.	[1g	2.gg
4D	.	4f	.	.
2C	2G	4e	.	.
.	.	4d	.	4ff
=72	=72	=72	=72	=72
1r	2.c	1c	1g]	4ee
.	.	.	.	4dd
.	.	.	.	2cc
.	4B-y	.	.	.
2r	2A	2r	2r	2r
2C	2G	2g	2cc	2ee
=73	=73	=73	=73	=73
2D	0r	2f	2a	2dd
2C	.	2g	2.cc	2.ee
2c	.	2e	.	.
.	.	.	4b-y	4dd
2F	.	2f	2a	[2cc
=74	=74	=74	=74	=74
1G	1r	1d	1g	2cc]
.	.	.	.	2bni
2A	2r	2.c	2e	1cc
2F	2c	.	2a	.
.	.	4d	.	.
=75	=75	=75	=75	=75
2G	2B-y	2e	2g	0r
2F	2c	2.f	2.a	.
2F	2A	.	.	.
.	.	4e	4g	.
2BB-y	2B-y	2d	[2f	.
=76	=76	=76	=76	=76
1C	1G	2c	2f]	2r
.	.	2g	2e	2ee
2D	1r	2f	2f	2dd
2C	.	2g	2e	[2ee
=77	=77	=77	=77	=77
2c	0r	2e	1c	4ee]
.	.	.	.	4dd
2F	.	2f	.	1cc
1G	.	1d	2r	.
.	.	.	2g	2bni
=78	=78	=78	=78	=78
2A	1c	2c	2e	1cc
2F	.	2f	2a	.
2G	2B-y	2e	2g	2r
[2F	2c	[2f	[2a	2cc
=79	=79	=79	=79	=79
2F]	2A	4f]	4a]	2cc
.	.	4e	4g	.
2BB-y	2B-y	2d	1f	2dd
1C	1G	1c	.	1ee
.	.	.	2e	.
=	=	=	=	=
00F	00F	00c	00f	00a
=||	=||	=||	=||	=||
*M2/1	*M2/1	*M2/1	*M2/1	*M2/1
*met(C|)	*met(C|)	*met(C|)	*met(C|)	*met(C|)
!!section: Qui tollis
!!!OMD: Qui tollis
0r	0r	1c	0r	0r
.	.	2d	.	.
.	.	[2f	.	.
=80	=80	=80	=80	=80
1r	0r	2f]	0r	0r
.	.	4e	.	.
.	.	4d	.	.
1C	.	1e	.	.
=81	=81	=81	=81	=81
2D	0r	2d	0r	0r
1F	.	4c	.	.
.	.	4B-y	.	.
.	.	2A	.	.
4E	.	2d	.	.
4D	.	.	.	.
=82	=82	=82	=82	=82
1E	1c	1G	0r	0r
1D	2d	1A	.	.
.	[2f	.	.	.
=83	=83	=83	=83	=83
1D	2f]	2r	0r	1r
.	4e	2.a	.	.
.	4d	.	.	.
1A	1e	.	.	1cc
.	.	4g	.	.
.	.	2e	.	.
=84	=84	=84	=84	=84
0D	1.d	1f	0r	2dd
.	.	.	.	1ff
.	.	1d	.	.
.	4c	.	.	4ee
.	4B-y	.	.	4dd
=85	=85	=85	=85	=85
0r	1A	2r	1c	1ee
.	.	2e	.	.
.	1D	2f	2d	1dd
.	.	[2d	[2f	.
=86	=86	=86	=86	=86
0r	0A	2d]	2f]	1r
.	.	4c	4e	.
.	.	4B-y	4d	.
.	.	1c	1e	1ee
=87	=87	=87	=87	=87
1D	2D	[0d	2.d	1.ff
.	1d	.	.	.
.	.	.	4e	.
1D	.	.	4f	.
.	.	.	4g	.
.	2c	.	2a	2ee
=88	=88	=88	=88	=88
1G	2B-y	0d_	1d	2dd
.	2A	.	.	2cc
1G	1G	.	1g	1b-y
=89	=89	=89	=89	=89
1D	1A	0d]	1f	1a
2r	[1d	.	2r	2r
2D	.	.	2f	2a
=90	=90	=90	=90	=90
2G	2d]	0r	2g	2b-y
2D	2d	.	2f	2a
2G	2d	.	2g	2b-y
2D	2d	.	2f	[2a
=91	=91	=91	=91	=91
0G	0B-y	0r	1d	2a]
.	.	.	.	4g
.	.	.	.	4f
.	.	.	1e	1g
=92	=92	=92	=92	=92
1D	1A	1r	1f	1a
1r	[1G	1g	1g	1b-y
=93	=93	=93	=93	=93
1G	1G]	1g	1b-y	1r
1G	1r	1g	1b-y	2r
.	.	.	.	2dd
=94	=94	=94	=94	=94
1G	2r	1d	1b-y	1dd
.	2d	.	.	.
1D	1d	1d	1a	1dd
=95	=95	=95	=95	=95
1D	1d	1f	1dd	1a
1F	1A	1f	2.cc	1a
.	.	.	4b-y	.
=96	=96	=96	=96	=96
1F	1A	1c	1a	1cc
1C	1c	[1e	1g	1cc
=97	=97	=97	=97	=97
1r	1c	2e]	1.g	1g
.	.	2e	.	.
[1C	1G	1e	.	1r
.	.	.	2g	.
=98	=98	=98	=98	=98
2C]	1.G	2r	1g	1.cc
2C	.	1e	.	.
1C	.	.	2cc	.
.	2G	2e	2cc	2cc
=99	=99	=99	=99	=99
2F	1A	1.f	2a	1cc
2F	.	.	2a	.
2D	2A	.	[1dd	2ff
2D	2A	2f	.	2ff
=100	=100	=100	=100	=100
1.G	1B-y	1g	2dd]	2dd
.	.	.	1b-y	2dd
.	1G	1g	.	1gg
4F	.	.	4a	.
4E	.	.	4g	.
=101	=101	=101	=101	=101
2F	1c	1r	2a	1cc
2.C	.	.	2.g	.
.	2c	[1g	.	1r
4D	.	.	4f	.
4E	[2G	.	4g	.
4F	.	.	4a	.
=102	=102	=102	=102	=102
1.G	4G]	2g]	1.b-y	1r
.	4A	.	.	.
.	4B-y	4f	.	.
.	4c	4e	.	.
.	1d	2.d	.	2r
4F	.	.	4a	[2dd
4E	.	4e	4g	.
=103	=103	=103	=103	=103
2.D	1d	1.f	0a	2dd]
.	.	.	.	4cc
4E	.	.	.	4b-y
4F	1c	.	.	2a
4G	.	.	.	.
[2A	.	2e	.	[2cc
=104	=104	=104	=104	=104
4A]	2A	1c	0r	4cc]
4G	.	.	.	4b-y
2F	2.c	.	.	2a
2E	.	2r	.	2g
.	4B-y	.	.	.
2F	2A	[2c	.	2f
=105	=105	=105	=105	=105
1.C	2G	4c]	0cc	2.e
.	.	4d	.	.
.	2.c	2.e	.	.
.	.	.	.	4f
.	.	.	.	2g
.	4B-y	4d	.	.
[2F	4A	4c	.	[2a
.	4G	4B-y	.	.
=106	=106	=106	=106	=106
2F]	1F	2.A	0cc	4a]
.	.	.	.	4g
4E	.	.	.	1f
4D	.	4B-y	.	.
1C	1G	1c	.	.
.	.	.	.	2e
=107	=107	=107	=107	=107
0F	1F	1A 1c	2r	1f
.	.	.	2c	.
.	2r	1r	1f	1r
.	2F	.	.	.
=108	=108	=108	=108	=108
0r	1B-y	0r	2d	2r
.	.	.	2d	2f
.	2G	.	2.g	1b-y
.	2G	.	.	.
.	.	.	4f	.
=109	=109	=109	=109	=109
0r	2.c	1r	2e	2g
.	.	.	2d	2g
.	4B-y	.	.	.
.	2.A	2r	1c	2.cc
.	.	2c	.	.
.	4G	.	.	4b-y
=110	=110	=110	=110	=110
2r	1F	1f	1r	2.a
2F	.	.	.	.
.	.	.	.	4g
1B-y	1r	2d	2r	1f
.	.	2d	2f	.
=111	=111	=111	=111	=111
2G	0r	2.g	1b-y	0r
2G	.	.	.	.
.	.	4f	.	.
2.c	.	2.e	2g	.
.	.	.	2g	.
4B-y	.	4d	.	.
=112	=112	=112	=112	=112
2.A	0r	2c	2.cc	0r
.	.	2.a	.	.
4G	.	.	4b-y	.
1F	.	.	2a	.
.	.	4g	.	.
.	.	[2a	2g	.
=113	=113	=113	=113	=113
2r	0r	2a]	1f	0r
2d	.	4g	.	.
.	.	4f	.	.
2c	.	2e	1r	.
[2d	.	[2f	.	.
=114	=114	=114	=114	=114
2d]	0r	2f]	0r	2r
4c	.	4e	.	2dd
4B-y	.	4d	.	.
2A	.	4e	.	2cc
.	.	4c	.	.
[2B-y	.	[2f	.	[2dd
=115	=115	=115	=115	=115
2B-]	2r	2f]	0r	2dd]
4A	2B-y	2e	.	4cc
4G	.	.	.	4b-y
2F	2c	1f	.	2a
[2BB-y	[2d	.	.	[2b-y
=116	=116	=116	=116	=116
2BB-]	2d]	0r	1r	2b-]
2C	4c	.	.	4a
.	4B-y	.	.	4g
1D	2A	.	2r	1f
.	[2B-y	.	2d	.
=117	=117	=117	=117	=117
4GG	2B-]	1r	2.d	1b-y
4AA	.	.	.	.
4BB-y	4A	.	.	.
4C	4G	.	4e	.
4D	2.F	2.f	4f	2.a
4E	.	.	4g	.
[2F	.	.	[2a	.
.	4G	4e	.	4b-y
=118	=118	=118	=118	=118
4F]	4A	2.c	4a]	2.cc
4E	4B-y	.	4g	.
2.C	2.c	.	4e	.
.	.	4d	4f	4b-y
.	.	2.e-i	[1g	2.g
4D	4B-y	.	.	.
[2E-i	[2G	.	.	.
.	.	4d	.	4a
=119	=119	=119	=119	=119
2E-]	4G]	2.B-y	2g]	4b-y
.	4A	.	.	4cc
4D	1B-y	.	2f	1dd
4C	.	4c	.	.
2.BB-y	.	2.d	1f	.
.	4A	.	.	4cc
4C	4G	4e	.	4b-y
=120	=120	=120	=120	=120
2D	2F	2f	1r	2a
2E-i	2G	2B-y	.	2.g
1C	1E	2.c	2r	.
.	.	.	.	4f
.	.	.	2g	4e
.	.	4B-y	.	4d
=121	=121	=121	=121	=121
1r	2F	2A	2a	2c
.	2D	2F	2b-y	1f
1C	1C	1G	1cc	.
.	.	.	.	2e
=122	=122	=122	=122	=122
1D	[0F	1r	[0a	0f
[1F	.	1c	.	.
=123	=123	=123	=123	=123
2F]	0F]	1d	0a_	0r
2F	.	.	.	.
2.F	.	[1f	.	.
4E	.	.	.	.
=124	=124	=124	=124	=124
4D	0r	2f]	0a]	0r
4C	.	.	.	.
1D	.	2f	.	.
.	.	2f	.	.
4C	.	4e	.	.
4BB-y	.	4d	.	.
=125	=125	=125	=125	=125
2AA	1r	2c	0r	0r
2.BB-y	.	1d	.	.
.	2r	.	.	.
4C	.	.	.	.
4D	2F	4c	.	.
4E	.	4B-y	.	.
=126	=126	=126	=126	=126
0F	2c	0A	0r	2r
.	2d	.	.	2f
.	2c	.	.	2cc
.	2f	.	.	2dd
=127	=127	=127	=127	=127
0r	4e	0r	0r	2cc
.	4c	.	.	.
.	2d	.	.	2ff
.	2c	.	.	4ee
.	.	.	.	4cc
.	[2f	.	.	2dd
=128	=128	=128	=128	=128
0r	4f]	0r	0r	2cc
.	4e	.	.	.
.	4d	.	.	2.dd
.	4c	.	.	.
.	2d	.	.	.
.	.	.	.	4cc
.	[2g	.	.	4b-y
.	.	.	.	4a
=129	=129	=129	=129	=129
0r	4g]	0r	0r	2g
.	4f	.	.	.
.	2e	.	.	1cc
.	1d	.	.	.
.	.	.	.	2bni
=130	=130	=130	=130	=130
2r	0c	2r	2r	[0cc
2F	.	2f	2a	.
2c	.	2e	2g	.
2F	.	2f	2a	.
=131	=131	=131	=131	=131
2c	1r	2e	2g	0cc]
2.F	.	1f	1a	.
.	2r	.	.	.
4E	.	.	.	.
2F	2c	4e	4g	.
.	.	4d	4f	.
=132	=132	=132	=132	=132
1C	1c	1e	1g	1r
2r	2A	2r	2r	2r
2F	2F	2c	2a	2ff
=133	=133	=133	=133	=133
2C	2G	1c	2g	2ee
2F	2F	.	2a	2ff
2C	1c	2c	2g	2ee
2F	.	2F	2a	2ff
=134	=134	=134	=134	=134
2C	4c	2G	2g	2ee
.	4B-y	.	.	.
2.F	4A	2F	2a	1ff
.	4G	.	.	.
.	1A	[1c	1f	.
4E	.	.	.	.
2F	.	.	.	4ee
.	.	.	.	4dd
=135	=135	=135	=135	=135
1C	1G	1c]	1g	1ee
1F	[1F	1A	2a	2r
.	.	.	2cc	2a
=136	=136	=136	=136	=136
0r	1F]	[0A	2a	2cc
.	.	.	2.cc	4a
.	.	.	.	4b-y
.	1r	.	.	4cc
.	.	.	4b-y	4dd
.	.	.	4a	[2ee
.	.	.	4g	.
=137	=137	=137	=137	=137
0r	0r	0A]	2a	2ee]
.	.	.	2f	1dd
.	.	.	1e	.
.	.	.	.	2cc#i
=138	=138	=138	=138	=138
2G	2r	1B-y	0d	0dd
2B-y	2G	.	.	.
2G	2B-y	1r	.	.
[2B-y	4G	.	.	.
.	4A	.	.	.
=139	=139	=139	=139	=139
4B-]	4B-y	0r	0r	0r
4A	4c	.	.	.
4G	1d	.	.	.
4F	.	.	.	.
2G	.	.	.	.
2E	[2c	.	.	.
=140	=140	=140	=140	=140
1D	2c]	1F	0r	0r
.	2Bni	.	.	.
1C	1c	1G	.	.
=141	=141	=141	=141	=141
2r	2r	1.A	2r	2r
1F	1c	.	1a	1ff
2F	2c	2F	2a	2ff
=142	=142	=142	=142	=142
0F	0A	0c	1a	1.ff
.	.	.	1f	.
.	.	.	.	4ee
.	.	.	.	4dd
=143	=143	=143	=143	=143
1C	1G	2r	1g	1ee
.	.	2G	.	.
2r	2r	2c	2r	2r
2C	2G	2c	2g	2ee
=144	=144	=144	=144	=144
3%2F	3%2A	2.A	3%2f	3%2ff
3F	3F	.	3a	3ff
.	.	4B-y	.	.
3C	3G	1c	3g	3ee
3%2F	3%2A	.	3%2f	3%2cc
=145	=145	=145	=145	=145
3%2E	3%2G	3%2r	3%2g	3%2ee
3C	3G	3c	3cc	3ee
3%2C	3G	3c	3cc	3ee
.	3%2G	3%2e	3%2cc	3%2cc
3C	.	.	.	.
=146	=146	=146	=146	=146
3%2G	3%2G	3%2d	3%2b-y	3%2dd
3G	3B-y	3d	3b-y	3dd
3B-y	3B-y	3%2d	3b-y	3dd
3%2B-y	3%2G	.	3%2b-y	3%2dd
.	.	3d	.	.
=147	=147	=147	=147	=147
1F	0A	1f	1a	[0cc
2r	.	2r	2r	.
2F	.	2c	2a	.
=148	=148	=148	=148	=148
2E	0r	2c	2g	1cc]
2F	.	2c	2a	.
2D	.	2d	2f	2r
2D	.	2d	2f	2a
=149	=149	=149	=149	=149
3%2G	0r	2B-y	3%2g	3%2b-y
.	.	2G	.	.
3G	.	.	3g	3b-y
3D	.	[1d	3f	3a
3%2G	.	.	3%2g	3%2b-y
=150	=150	=150	=150	=150
2D	2r	0d]	2f	2a
2G	2G	.	2e	2b-y
2D	2F	.	2f	2a
2G	2G	.	2d	2b-y
=151	=151	=151	=151	=151
3%2C	2E	[0c	3%2e	0cc
.	2E	.	.	.
3C	.	.	3e	.
3F	2A	.	3f	.
3%2F	.	.	3%2f	.
.	2A	.	.	.
=152	=152	=152	=152	=152
0C	0G	0c]	3%2e	3%2cc
.	.	.	3r	3r
.	.	.	3g	3ee
.	.	.	3g	3ee
.	.	.	3g	3ee
=153	=153	=153	=153	=153
0r	0r	0r	3%2a	3ff
.	.	.	.	3.ee
.	.	.	3g	.
.	.	.	.	6dd
.	.	.	3f	3%2dd
.	.	.	3%2e	.
.	.	.	.	3cc#i
=154	=154	=154	=154	=154
3D	3A	3f	1d	0dd
3D	3A	3f	.	.
3D	3A	3f	.	.
3%2G	3%2B-y	3.d	1r	.
.	.	6e	.	.
3F	3A	3f	.	.
=155	=155	=155	=155	=155
3%2G	3%2B-y	3e	0r	0r
.	.	3.d	.	.
3F	3A	.	.	.
.	.	6c	.	.
3E	3%2G	3%2c	.	.
3%2D	.	.	.	.
.	3F	3Bni	.	.
=156	=156	=156	=156	=156
0C	2G	1c	2r	2r
.	2c	.	2g	2ee
.	2c	1r	2g	2ee
.	2c	.	2g	2ee
=157	=157	=157	=157	=157
3%2r	3%2F	3%2r	3%2a	3%2ff
3C	3r	3G	3cc	3ee
3%2G	3B-y	3G	3%2b-y	3%2dd
.	3B-y	3%2G	.	.
3G	3B-y	.	3a	3cc
=158	=158	=158	=158	=158
3G	3%2B-y	3%2d	1g	3%2b-y
3%2G	.	.	.	.
.	3B-y	3d	.	3b-y
3D	3A	3d	3f	3f
3%2G	3%2B-y	3%2B-y	3%2d	3%2g
=159	=159	=159	=159	=159
1F	0A	0c	1f	[0a
2r	.	.	1e	.
2C	.	.	.	.
=160	=160	=160	=160	=160
2D	2r	0r	1r	0a]
2C	2c	.	.	.
2.F	2d	.	2r	.
.	2c	.	2c	.
4E	.	.	.	.
=161	=161	=161	=161	=161
2D	2.f	2r	2d	1r
2C	.	2c	2e	.
.	4e	.	.	.
2BB-y	2d	2d	2f	2r
2F	2A	2c	2a	2cc
=162	=162	=162	=162	=162
2BB-y	2r	2.f	2b-y	2dd
2F	2A	.	2a	2cc
.	.	4e	.	.
2BB-y	2D	2d	2b-y	2.ff
[2F	[2A	2c	[2a	.
.	.	.	.	4ee
=163	=163	=163	=163	=163
4F]	2A]	1f	4a]	2cc
4E	.	.	4g	.
2D	2F	.	4a	2dd
.	.	.	4b-y	.
1C	1G	[1e	2cc	[1ee
.	.	.	4b-y	.
.	.	.	4a	.
=164	=164	=164	=164	=164
2r	1c	1e]	1g	1ee]
2C	.	.	.	.
2D	2r	1r	1r	1r
2C	2c	.	.	.
=165	=165	=165	=165	=165
2.F	2d	1r	2r	0r
.	2c	.	2c	.
4E	.	.	.	.
2D	2.f	2r	2d	.
2C	.	2c	2e	.
.	4e	.	.	.
=166	=166	=166	=166	=166
2BB-y	2d	2d	2f	2r
2F	2A	2c	2a	2cc
2BB-y	2r	2.f	2b-y	2dd
2F	2A	.	2a	2cc
.	.	4e	.	.
=167	=167	=167	=167	=167
2BB-y	2D	2d	2b-y	2.ff
2.F	1A	2c	2.a	.
.	.	.	.	4ee
.	.	1f	.	2cc
4E	.	.	4g	.
2D	2F	.	4a	2dd
.	.	.	4b-y	.
=168	=168	=168	=168	=168
0C;	0G;	0e;	0cc;	0ee;
=169	=169	=169	=169	=169
0C	0G	0c	0cc	0ee
=170	=170	=170	=170	=170
00Fl	00F 00Al	00A 00cl	00ccl	00ffl
==	==	==	==	==
*-	*-	*-	*-	*-
!!!system-decoration: [*]
!!!RDF**kern: i = editorial accidental
!!!RDF**kern: l = terminal long
!!!ENC: Benjamin Ory
!!!END: 2021/4/20
!!!EED: Benjamin Ory
!!!EEV: 2021/05/12
!!!YEC: Copyright 2021 Benjamin Ory, All Rights Reserved
!!!ONB: Translated from MusicXML on 2021/05/12
